X:1
T:Athens (de Giardini), CMD
T:Athens (de Giardini), CMD
T:Felice de Giardini, 1760
T:Public Domain Courtesy of the Cyber Hymnal™
C:Felice de Giardini, 1760
Z:Public Domain
Z:Courtesy of the Cyber Hymnal™
%%score ( 1 2 ) ( 3 4 )
L:1/8
Q:1/4=105
M:6/8
K:Eb
V:1 treble 
V:2 treble 
V:3 bass 
V:4 bass 
V:1
 [Ge] | [GB]2 [EA] [EG]2 [B,F] | [B,E]2 [B,F] [B,E]2 [EB] | (c>d)[Ee] [GB]2 [FA] | %4
 [FA]3 [EG]2 [Ge] | [GB]2 [EA] [EG]2 [B,F] | [B,E]2 [B,F] [B,E]2 [EB] | (c>d)[Ee] [EG]2 [DF] | %8
 E3- E2 [GB] | (e>d)[Ec] [EB]2 [GB] | ([Ac]>[GB])[FA] [EG]2 B | [Ee]2 B G2 E | [DB]3- [DB]2 [Ge] | %13
 [GB]2 [EA] [EG]2 [B,F] | [B,E]2 [B,F] [B,E]2 [EB] | (c>d)[_Ee] [EG]2 [DF] | E3- E2 |] %17
V:2
 x | x6 | x6 | E2 x4 | x6 | x6 | x6 | E2 x4 | E3- E2 x | E2 x4 | x5 B | x2 B G2 E | x6 | x6 | x6 | %15
 =E2 x4 | E3- E2 |] %17
V:3
 [E,B,] | [E,B,]2 [E,C] [E,B,]2 [E,A,] | [E,G,]2 [E,A,] [E,G,]2 [G,B,] | A,2 [A,C] [B,E]2 [B,,B,] | %4
 [E,B,]3- [E,B,]2 [E,B,] | [E,B,]2 [E,C] [E,B,]2 [E,A,] | [E,G,]2 [E,A,] [E,G,]2 [G,B,] | %7
 A,2 [A,C] B,2 [B,,A,] | [E,G,]3- [E,G,]2 [E,G,] | (G,>B,)[E,A,] [E,G,]2 [E,E] | %10
 [E,E]2 [E,B,] [E,B,]2 [B,,B,] | [E,E]2 B, G,2 E, | [B,,B,]3- [B,,B,]2 [E,B,] | %13
 [E,B,]2 [E,C] [E,B,]2 [E,A,] | [E,G,]2 [E,A,] [E,G,]2 [G,B,] | A,2 [A,C] B,2 [B,,A,] | %16
 [E,G,]3- [E,G,]2 |] %17
V:4
 x | x6 | x6 | A,2 x4 | x6 | x6 | x6 | A,2 B,2 x2 | x6 | E,2 x4 | x6 | x2 B, G,2 E, | x6 | x6 | %14
 x6 | A,2 B,2 x2 | x5 |] %17

